flaticon/sport/basketball.svg

<svg xmlns="http://www.w3.org/2000/svg" width="32" height="32" viewBox="0 0 24 24">
    <path d="M 22.808594 4.816406 L 20.148438 2.765625 C 15.351562 -0.921875 8.648438 -0.921875 3.851562 2.765625 L 1.191406 4.816406 C 0.835938 5.085938 0.621094 5.519531 0.621094 5.964844 L 0.621094 15.992188 C 0.621094 16.183594 0.75 16.351562 0.933594 16.398438 L 4.539062 17.382812 C 5.257812 17.578125 6 17.679688 6.746094 17.679688 L 6.9375 17.679688 L 7.789062 23.636719 C 7.792969 23.660156 7.800781 23.679688 7.808594 23.703125 C 7.8125 23.714844 7.816406 23.726562 7.820312 23.734375 C 7.835938 23.78125 7.863281 23.824219 7.898438 23.859375 C 7.898438 23.863281 7.898438 23.867188 7.902344 23.867188 C 7.90625 23.875 7.914062 23.875 7.917969 23.878906 C 7.949219 23.910156 7.984375 23.933594 8.023438 23.953125 C 8.035156 23.957031 8.046875 23.964844 8.054688 23.96875 C 8.0625 23.972656 8.066406 23.976562 8.074219 23.976562 C 8.113281 23.992188 8.15625 23.996094 8.199219 23.996094 C 8.203125 23.996094 8.203125 24 8.207031 24 C 8.214844 24 8.222656 23.996094 8.230469 23.996094 C 8.265625 23.992188 8.304688 23.988281 8.339844 23.976562 C 8.351562 23.96875 8.363281 23.964844 8.378906 23.960938 C 8.417969 23.941406 8.453125 23.917969 8.488281 23.890625 C 8.492188 23.886719 8.496094 23.886719 8.5 23.882812 L 8.507812 23.875 L 10.300781 22.164062 L 12.140625 23.804688 C 12.160156 23.820312 12.1875 23.832031 12.210938 23.84375 C 12.21875 23.851562 12.226562 23.855469 12.234375 23.859375 C 12.246094 23.867188 12.253906 23.875 12.261719 23.878906 C 12.265625 23.878906 12.265625 23.878906 12.269531 23.878906 C 12.296875 23.890625 12.328125 23.894531 12.359375 23.898438 C 12.378906 23.902344 12.398438 23.910156 12.417969 23.910156 C 12.417969 23.910156 12.417969 23.910156 12.421875 23.910156 C 12.433594 23.910156 12.449219 23.902344 12.460938 23.902344 C 12.5 23.898438 12.535156 23.894531 12.570312 23.878906 C 12.574219 23.878906 12.578125 23.878906 12.582031 23.875 C 12.597656 23.867188 12.613281 23.855469 12.628906 23.847656 C 12.652344 23.832031 12.679688 23.824219 12.703125 23.800781 L 14.316406 22.355469 L 15.8125 23.777344 L 15.921875 23.882812 C 15.960938 23.921875 16.007812 23.949219 16.058594 23.96875 C 16.109375 23.988281 16.160156 24 16.214844 24 C 16.261719 24 16.304688 23.992188 16.351562 23.976562 C 16.355469 23.976562 16.359375 23.972656 16.367188 23.96875 C 16.375 23.964844 16.382812 23.960938 16.394531 23.953125 C 16.433594 23.933594 16.46875 23.910156 16.5 23.878906 C 16.507812 23.875 16.511719 23.875 16.519531 23.867188 C 16.519531 23.867188 16.523438 23.863281 16.523438 23.859375 C 16.558594 23.824219 16.582031 23.78125 16.601562 23.734375 C 16.605469 23.726562 16.609375 23.714844 16.613281 23.703125 C 16.617188 23.679688 16.628906 23.660156 16.628906 23.636719 L 17.484375 17.679688 L 17.574219 17.679688 C 18.390625 17.679688 19.199219 17.558594 19.980469 17.324219 L 23.078125 16.398438 C 23.253906 16.34375 23.375 16.179688 23.375 15.992188 L 23.375 5.96875 C 23.378906 5.519531 23.164062 5.089844 22.808594 4.816406 Z M 16.636719 12.214844 L 7.363281 12.214844 L 7.363281 6.90625 C 7.363281 6.8125 7.441406 6.738281 7.53125 6.738281 L 16.46875 6.738281 C 16.558594 6.738281 16.632812 6.8125 16.632812 6.90625 Z M 17.476562 13.058594 L 18.109375 13.058594 C 18.457031 13.058594 18.742188 13.335938 18.742188 13.675781 C 18.742188 14.027344 18.453125 14.324219 18.109375 14.324219 L 5.890625 14.324219 C 5.546875 14.324219 5.257812 14.027344 5.257812 13.675781 C 5.257812 13.335938 5.542969 13.058594 5.890625 13.058594 L 6.523438 13.058594 C 6.523438 13.058594 17.476562 13.058594 17.476562 13.058594 Z M 14.242188 21.117188 L 12.820312 19.765625 L 14.816406 17.859375 L 16.242188 19.15625 Z M 12.210938 20.347656 L 13.640625 21.707031 L 12.417969 22.902344 L 10.964844 21.53125 Z M 10.28125 21.019531 L 8.179688 19.152344 L 9.601562 17.859375 L 11.597656 19.765625 Z M 12.210938 19.183594 L 10.226562 17.292969 L 12.210938 15.492188 L 14.191406 17.292969 Z M 13.105469 15.167969 L 16.425781 15.167969 L 14.804688 16.710938 Z M 9.617188 16.710938 L 7.996094 15.164062 L 11.3125 15.164062 Z M 7.535156 15.890625 L 8.992188 17.277344 L 7.878906 18.292969 L 7.722656 17.203125 C 7.722656 17.203125 7.722656 17.199219 7.722656 17.199219 Z M 9.632812 21.570312 L 8.507812 22.6875 L 8.160156 20.257812 Z M 15.914062 22.707031 L 14.851562 21.699219 L 16.253906 20.328125 Z M 16.542969 18.292969 L 15.429688 17.277344 L 16.886719 15.886719 L 16.699219 17.195312 C 16.699219 17.199219 16.703125 17.203125 16.699219 17.203125 Z M 22.535156 15.679688 L 19.738281 16.519531 C 19.046875 16.726562 18.328125 16.832031 17.605469 16.835938 L 17.84375 15.164062 L 18.109375 15.164062 C 18.921875 15.164062 19.585938 14.496094 19.585938 13.675781 C 19.585938 12.871094 18.921875 12.214844 18.109375 12.214844 L 17.476562 12.214844 L 17.476562 6.90625 C 17.476562 6.347656 17.023438 5.894531 16.46875 5.894531 L 7.53125 5.894531 C 6.976562 5.894531 6.523438 6.347656 6.523438 6.90625 L 6.523438 12.214844 L 5.890625 12.214844 C 5.078125 12.214844 4.414062 12.871094 4.414062 13.675781 C 4.414062 14.496094 5.078125 15.167969 5.890625 15.167969 L 6.578125 15.167969 L 6.816406 16.835938 L 6.746094 16.835938 C 6.074219 16.835938 5.40625 16.746094 4.761719 16.570312 L 1.464844 15.671875 L 1.464844 5.96875 C 1.464844 5.777344 1.554688 5.597656 1.703125 5.484375 L 4.367188 3.4375 C 8.859375 -0.0234375 15.140625 -0.0234375 19.632812 3.4375 L 22.296875 5.484375 C 22.445312 5.597656 22.535156 5.777344 22.535156 5.96875 Z M 22.535156 15.679688"/>
</svg>

<svg xmlns="http://www.w3.org/2000/svg" width="32" height="32" viewBox="0 0 24 24">
    <path d="M22.809 4.816l-2.66-2.05a13.387 13.387 0 0 0-16.297 0l-2.66 2.05c-.356.27-.57.704-.57 1.149v10.027c0 .192.128.36.312.406l3.605.985c.719.195 1.461.297 2.207.297h.191l.852 5.957c.004.023.012.043.02.066a.27.27 0 0 0 .011.031c.016.047.043.09.078.125 0 .004 0 .008.004.008.004.008.012.008.016.012a.396.396 0 0 0 .105.074c.012.004.024.012.032.016s.011.008.02.008c.038.015.081.02.124.02.004 0 .004.003.008.003.008 0 .016-.004.023-.004.036-.004.075-.008.11-.02a.117.117 0 0 1 .039-.015.65.65 0 0 0 .11-.07c.003-.004.007-.004.011-.008l.008-.008 1.793-1.71 1.84 1.64c.02.015.046.027.07.039a.082.082 0 0 0 .023.015c.012.008.02.016.028.02h.008c.027.012.058.016.09.02.019.003.038.011.058.011h.004c.012 0 .027-.008.039-.008a.342.342 0 0 0 .11-.023c.003 0 .007 0 .011-.004.016-.008.031-.02.047-.027.023-.016.05-.024.074-.047l1.613-1.446 1.496 1.422.11.106c.039.039.086.066.137.086a.42.42 0 0 0 .293.008c.003 0 .007-.004.015-.008l.028-.016a.396.396 0 0 0 .105-.074c.008-.004.012-.004.02-.012 0 0 .003-.004.003-.008a.376.376 0 0 0 .09-.156c.004-.023.016-.043.016-.066l.855-5.957h.09c.817 0 1.625-.121 2.406-.356l3.098-.926a.424.424 0 0 0 .297-.406V5.97c.004-.45-.21-.88-.566-1.153zm-6.172 7.399H7.363V6.906a.17.17 0 0 1 .168-.168h8.938c.09 0 .164.074.164.168zm.84.844h.632c.348 0 .633.277.633.617 0 .351-.289.648-.633.648H5.891a.649.649 0 0 1-.633-.648c0-.34.285-.617.633-.617h11.586zm-3.235 8.058l-1.422-1.351 1.996-1.907 1.426 1.297zm-2.031-.77l1.43 1.36-1.223 1.195-1.453-1.37zm-1.93.673L8.18 19.152l1.422-1.293 1.996 1.907zm1.93-1.836l-1.984-1.891 1.984-1.8 1.98 1.8zm.894-4.016h3.32l-1.62 1.543zm-3.488 1.543l-1.62-1.547h3.316zm-2.082-.82l1.457 1.386-1.113 1.016-.156-1.09V17.2zm2.098 5.68l-1.125 1.116-.348-2.43zm6.281 1.136l-1.062-1.008 1.402-1.37zm.629-4.414l-1.113-1.016 1.457-1.39-.188 1.308c0 .004.004.008 0 .008zm5.992-2.613l-2.797.84a7.58 7.58 0 0 1-2.133.316l.239-1.672h.265c.813 0 1.477-.668 1.477-1.488 0-.805-.664-1.461-1.477-1.461h-.632V6.906c0-.558-.454-1.011-1.008-1.011H7.53c-.554 0-1.008.453-1.008 1.011v5.309h-.632c-.813 0-1.477.656-1.477 1.46 0 .821.664 1.493 1.477 1.493h.687l.238 1.668h-.07c-.672 0-1.34-.09-1.984-.266l-3.297-.898V5.969a.61.61 0 0 1 .238-.485l2.664-2.046a12.52 12.52 0 0 1 15.266 0l2.664 2.046a.61.61 0 0 1 .238.485zm0 0"/>
</svg>
